icons/Brisk Light/mimetypes/32/application-msword.svg

<?xml version="1.0" encoding="UTF-8" standalone="no"?>
<svg
   xmlns:dc="http://purl.org/dc/elements/1.1/"
   xmlns:cc="http://creativecommons.org/ns#"
   xmlns:rdf="http://www.w3.org/1999/02/22-rdf-syntax-ns#"
   xmlns:svg="http://www.w3.org/2000/svg"
   xmlns="http://www.w3.org/2000/svg"
   xmlns:xlink="http://www.w3.org/1999/xlink"
   xmlns:sodipodi="http://sodipodi.sourceforge.net/DTD/sodipodi-0.dtd"
   xmlns:inkscape="http://www.inkscape.org/namespaces/inkscape"
   width="32px"
   height="32px"
   viewBox="0 0 32 32"
   version="1.1"
   id="svg18"
   sodipodi:docname="application-msword.svg"
   inkscape:version="0.92.4 5da689c313, 2019-01-14">
  <metadata
     id="metadata22">
    <rdf:RDF>
      <cc:Work
         rdf:about="">
        <dc:format>image/svg+xml</dc:format>
        <dc:type
           rdf:resource="http://purl.org/dc/dcmitype/StillImage" />
        <dc:title>text-x-javascript</dc:title>
      </cc:Work>
    </rdf:RDF>
  </metadata>
  <sodipodi:namedview
     pagecolor="#1e2023"
     bordercolor="#666666"
     borderopacity="1"
     objecttolerance="10"
     gridtolerance="10"
     guidetolerance="10"
     inkscape:pageopacity="0"
     inkscape:pageshadow="2"
     inkscape:window-width="3840"
     inkscape:window-height="2012"
     id="namedview20"
     showgrid="true"
     inkscape:zoom="39.001358"
     inkscape:cx="9.6863057"
     inkscape:cy="19.589619"
     inkscape:window-x="0"
     inkscape:window-y="0"
     inkscape:window-maximized="1"
     inkscape:current-layer="svg18">
    <inkscape:grid
       type="xygrid"
       id="grid820"
       color="#6e6e6e"
       opacity="0.1254902"
       empcolor="#6e6e6e"
       empopacity="0.25098039" />
  </sodipodi:namedview>
  <!-- Generator: Sketch 40.3 (33839) - http://www.bohemiancoding.com/sketch -->
  <title
     id="title2">text-x-javascript</title>
  <desc
     id="desc4">Created with Sketch.</desc>
  <defs
     id="defs6" />
  <g
     id="g830">
    <image
       width="27"
       height="30"
       preserveAspectRatio="none"
       xlink:href="data:image/png;base64,iVBORw0KGgoAAAANSUhEUgAAABsAAAAeCAYAAADdGWXmAAAABHNCSVQICAgIfAhkiAAAAWhJREFU SIntlmFPgzAQhp8Csm666P//k5rolgmD+qHvSYdDC8FvvEmzhPTuaa+X3euIctwqkC83+g1T8aU2 OeABqGbCLLZWfPlbfAkU2ngA9vreZwKdDrgHjoBPYP0UzAPPwKM2Nfc2/wF7EbBS7HV84CoJ8MAO uOgAueqUuCOWs1bOAJxSaHqzI7GcF+Cs4FxZ2e2WOwE7rWA3SzXuyhwFoAU+GBrmSHyWXusMdGPY Etm7NMB7AnwivmOr1a8BuwcsGEp60LdmTiPkAIOAJ2LpekFLwK0JS4EdsXTWZA7mtfgcoHXnzV/X f8AmtcE22AbbYMuVjhibQ0Wy5li6NI/FW84fMHNZnjiDSvJMz1gF0RZ45WsMOPaJnmHwNSy/WU20 BjVxtvUGM9vVEOeP1/dvo7IAVipHq7xXZAtsur5pszmjJaAUGIBP4FX5gz2g2e+awUsucVomG5pW sdZgdhIYOmgtpTY8fAHNF2XFmg89HgAAAABJRU5ErkJggg== "
       id="image1000-3"
       x="2.5"
       y="2" />
    <path
       d="m 26.05439,29.537 h -20 c -1,0 -1,-1 -1,-1 V 4.5370003 c 0,0 0,-1 1,-1 h 14 l 7,6.9999997 v 18 c 0,1 -1,1 -1,1 z"
       id="path14361-6"
       inkscape:connector-curvature="0"
       style="fill:#2a5492;fill-opacity:1;fill-rule:evenodd;stroke:none;stroke-width:1" />
    <path
       d="m 21.05439,10.537 c -1,0 -1,-1.018667 -1,-1.018667 V 3.5183333 l 7,7.0186667 z"
       id="path14363-7"
       inkscape:connector-curvature="0"
       style="opacity:0.5;fill:#ffffff;fill-opacity:1;fill-rule:evenodd;stroke:none;stroke-width:1" />
    <path
       id="Combined-Shape"
       d="M 16.554688,11 8.5546875,12.351562 V 23.648438 L 16.554688,25 Z m 1,2 v 1 h 5 v 1 h -5 v 1 h 5 v 1 h -5 v 1 h 5 v 1 h -5 v 1 h 5 v 1 h -5 v 1 h 5.5 c 0.276141,0 0.5,-0.223858 0.5,-0.5 v -8 c 0,-0.276142 -0.223858,-0.5 -0.5,-0.5 z m -7.8496099,2.792969 h 0.9687499 l 0.677734,3.216797 0.671876,-3.216797 h 0.974609 l 0.671875,3.216797 0.677734,-3.216797 h 0.960938 l -0.923828,4.427734 H 13.21875 l -0.710938,-3.365234 -0.705078,3.365234 h -1.164062 z"
       style="fill:#ffffff;fill-rule:evenodd;stroke:none;stroke-width:1"
       inkscape:connector-curvature="0" />
  </g>
</svg>

<?xml version="1.0" encoding="UTF-8" standalone="no"?>
<svg
   xmlns:dc="http://purl.org/dc/elements/1.1/"
   xmlns:cc="http://creativecommons.org/ns#"
   xmlns:rdf="http://www.w3.org/1999/02/22-rdf-syntax-ns#"
   xmlns:svg="http://www.w3.org/2000/svg"
   xmlns="http://www.w3.org/2000/svg"
   xmlns:xlink="http://www.w3.org/1999/xlink"
   xmlns:sodipodi="http://sodipodi.sourceforge.net/DTD/sodipodi-0.dtd"
   xmlns:inkscape="http://www.inkscape.org/namespaces/inkscape"
   width="32px"
   height="32px"
   viewBox="0 0 32 32"
   version="1.1"
   id="svg18"
   sodipodi:docname="application-msword.svg"
   inkscape:version="0.92.4 5da689c313, 2019-01-14">
  <metadata
     id="metadata22">
    <rdf:RDF>
      <cc:Work
         rdf:about="">
        <dc:format>image/svg+xml</dc:format>
        <dc:type
           rdf:resource="http://purl.org/dc/dcmitype/StillImage" />
        <dc:title>text-x-javascript</dc:title>
      </cc:Work>
    </rdf:RDF>
  </metadata>
  <sodipodi:namedview
     pagecolor="#1e2023"
     bordercolor="#666666"
     borderopacity="1"
     objecttolerance="10"
     gridtolerance="10"
     guidetolerance="10"
     inkscape:pageopacity="0"
     inkscape:pageshadow="2"
     inkscape:window-width="3840"
     inkscape:window-height="2012"
     id="namedview20"
     showgrid="true"
     inkscape:zoom="27.578125"
     inkscape:cx="-8.1133146"
     inkscape:cy="16"
     inkscape:window-x="0"
     inkscape:window-y="0"
     inkscape:window-maximized="1"
     inkscape:current-layer="svg18">
    <inkscape:grid
       type="xygrid"
       id="grid820"
       color="#6e6e6e"
       opacity="0.1254902"
       empcolor="#6e6e6e"
       empopacity="0.25098039" />
  </sodipodi:namedview>
  <!-- Generator: Sketch 40.3 (33839) - http://www.bohemiancoding.com/sketch -->
  <title
     id="title2">text-x-javascript</title>
  <desc
     id="desc4">Created with Sketch.</desc>
  <defs
     id="defs6" />
  <g
     id="g862">
    <image
       width="27"
       height="30"
       preserveAspectRatio="none"
       xlink:href="data:image/png;base64,iVBORw0KGgoAAAANSUhEUgAAABsAAAAeCAYAAADdGWXmAAAABHNCSVQICAgIfAhkiAAAAWhJREFU SIntlmFPgzAQhp8Csm666P//k5rolgmD+qHvSYdDC8FvvEmzhPTuaa+X3euIctwqkC83+g1T8aU2 OeABqGbCLLZWfPlbfAkU2ngA9vreZwKdDrgHjoBPYP0UzAPPwKM2Nfc2/wF7EbBS7HV84CoJ8MAO uOgAueqUuCOWs1bOAJxSaHqzI7GcF+Cs4FxZ2e2WOwE7rWA3SzXuyhwFoAU+GBrmSHyWXusMdGPY Etm7NMB7AnwivmOr1a8BuwcsGEp60LdmTiPkAIOAJ2LpekFLwK0JS4EdsXTWZA7mtfgcoHXnzV/X f8AmtcE22AbbYMuVjhibQ0Wy5li6NI/FW84fMHNZnjiDSvJMz1gF0RZ45WsMOPaJnmHwNSy/WU20 BjVxtvUGM9vVEOeP1/dvo7IAVipHq7xXZAtsur5pszmjJaAUGIBP4FX5gz2g2e+awUsucVomG5pW sdZgdhIYOmgtpTY8fAHNF2XFmg89HgAAAABJRU5ErkJggg== "
       id="image1000-3"
       x="2.5"
       y="2" />
    <path
       d="m 26.05439,29.537 h -20 c -1,0 -1,-1 -1,-1 V 4.5370003 c 0,0 0,-1 1,-1 h 14 l 7,6.9999997 v 18 c 0,1 -1,1 -1,1 z"
       id="path14361-6"
       inkscape:connector-curvature="0"
       style="fill:#2a5492;fill-opacity:1;fill-rule:evenodd;stroke:none;stroke-width:1" />
    <path
       d="m 21.05439,10.555667 c -1,0 -1,-1.018667 -1,-1.018667 V 3.5370003 l 7,7.0186667 z"
       id="path14363-7"
       inkscape:connector-curvature="0"
       style="fill:#95aac9;fill-opacity:1;fill-rule:evenodd;stroke:none;stroke-width:1;opacity:1" />
    <path
       id="Combined-Shape"
       d="M 16.554688 11 L 8.5546875 12.351562 L 8.5546875 23.648438 L 16.554688 25 L 16.554688 11 z M 17.554688 13 L 17.554688 14 L 22.554688 14 L 22.554688 15 L 17.554688 15 L 17.554688 16 L 22.554688 16 L 22.554688 17 L 17.554688 17 L 17.554688 18 L 22.554688 18 L 22.554688 19 L 17.554688 19 L 17.554688 20 L 22.554688 20 L 22.554688 21 L 17.554688 21 L 17.554688 22 L 23.054688 22 C 23.330829 22 23.554688 21.776142 23.554688 21.5 L 23.554688 13.5 C 23.554688 13.223858 23.33083 13 23.054688 13 L 17.554688 13 z M 9.7050781 15.792969 L 10.673828 15.792969 L 11.351562 19.009766 L 12.023438 15.792969 L 12.998047 15.792969 L 13.669922 19.009766 L 14.347656 15.792969 L 15.308594 15.792969 L 14.384766 20.220703 L 13.21875 20.220703 L 12.507812 16.855469 L 11.802734 20.220703 L 10.638672 20.220703 L 9.7050781 15.792969 z "
       style="fill:#ffffff;fill-rule:evenodd;stroke:none;stroke-width:1" />
  </g>
</svg>
